(G-CODE GENERATED BY FLATCAM v8.993 - www.flatcam.org - Version Date: 2020/06/05)

(Name: Alignment Drills_mill_cnc)
(Type: G-code from Geometry)
(Units: MM)

(Created on Friday, 03 November 2023 at 12:43)

(This preprocessor is the default preprocessor used by FlatCAM.)
(It is made to work with MACH3 compatible motion controllers.)

(TOOL DIAMETER: 6.0 mm)
(Feedrate_XY: 120.0 mm/min)
(Feedrate_Z: 60.0 mm/min)
(Feedrate rapids 1500.0 mm/min)

(Z_Cut: -6.0 mm)
(DepthPerCut: 1.5 mm <=>4 passes)
(Z_Move: 2.0 mm)
(Z Start: None mm)
(Z End: 15.0 mm)
(Steps per circle: 64)
(Preprocessor Geometry: default)

(X range:  -10.0000 ...   60.0000  mm)
(Y range:  -10.0000 ...   80.1000  mm)

(Spindle Speed: None RPM)
G21
G90
G94



G01 F120.00
G00 Z2.0000

M03
G00 X-10.0000 Y-9.9000
G01 F60.00
G01 Z-1.5000
G01 F120.00
G01 X-10.0000 Y-9.9000
G01 X-10.0000 Y-9.9000
G01 X-10.0000 Y-9.9000
G01 X-10.0000 Y-9.9000
G00 X-10.0000 Y-9.9000
G01 F60.00
G01 Z-3.0000
G01 F120.00
G01 X-10.0000 Y-9.9000
G01 X-10.0000 Y-9.9000
G01 X-10.0000 Y-9.9000
G01 X-10.0000 Y-9.9000
G00 X-10.0000 Y-9.9000
G01 F60.00
G01 Z-4.5000
G01 F120.00
G01 X-10.0000 Y-9.9000
G01 X-10.0000 Y-9.9000
G01 X-10.0000 Y-9.9000
G01 X-10.0000 Y-9.9000
G00 X-10.0000 Y-9.9000
G01 F60.00
G01 Z-6.0000
G01 F120.00
G01 X-10.0000 Y-9.9000
G01 X-10.0000 Y-9.9000
G01 X-10.0000 Y-9.9000
G01 X-10.0000 Y-9.9000
G00 Z2.0000
G00 X-10.0000 Y-10.0000
G01 F60.00
G01 Z-1.5000
G01 F120.00
G01 X-10.0000 Y-10.0000
G01 X-10.0000 Y-10.0000
G01 X-10.0000 Y-10.0000
G01 X-10.0000 Y-10.0000
G00 X-10.0000 Y-10.0000
G01 F60.00
G01 Z-3.0000
G01 F120.00
G01 X-10.0000 Y-10.0000
G01 X-10.0000 Y-10.0000
G01 X-10.0000 Y-10.0000
G01 X-10.0000 Y-10.0000
G00 X-10.0000 Y-10.0000
G01 F60.00
G01 Z-4.5000
G01 F120.00
G01 X-10.0000 Y-10.0000
G01 X-10.0000 Y-10.0000
G01 X-10.0000 Y-10.0000
G01 X-10.0000 Y-10.0000
G00 X-10.0000 Y-10.0000
G01 F60.00
G01 Z-6.0000
G01 F120.00
G01 X-10.0000 Y-10.0000
G01 X-10.0000 Y-10.0000
G01 X-10.0000 Y-10.0000
G01 X-10.0000 Y-10.0000
G00 Z2.0000
G00 X60.0000 Y-9.9000
G01 F60.00
G01 Z-1.5000
G01 F120.00
G01 X60.0000 Y-9.9000
G01 X60.0000 Y-9.9000
G01 X60.0000 Y-9.9000
G01 X60.0000 Y-9.9000
G00 X60.0000 Y-9.9000
G01 F60.00
G01 Z-3.0000
G01 F120.00
G01 X60.0000 Y-9.9000
G01 X60.0000 Y-9.9000
G01 X60.0000 Y-9.9000
G01 X60.0000 Y-9.9000
G00 X60.0000 Y-9.9000
G01 F60.00
G01 Z-4.5000
G01 F120.00
G01 X60.0000 Y-9.9000
G01 X60.0000 Y-9.9000
G01 X60.0000 Y-9.9000
G01 X60.0000 Y-9.9000
G00 X60.0000 Y-9.9000
G01 F60.00
G01 Z-6.0000
G01 F120.00
G01 X60.0000 Y-9.9000
G01 X60.0000 Y-9.9000
G01 X60.0000 Y-9.9000
G01 X60.0000 Y-9.9000
G00 Z2.0000
G00 X60.0000 Y0.0000
G01 F60.00
G01 Z-1.5000
G01 F120.00
G01 X60.0000 Y-0.0000
G01 X60.0000 Y-0.0000
G01 X60.0000 Y0.0000
G01 X60.0000 Y0.0000
G00 X60.0000 Y0.0000
G01 F60.00
G01 Z-3.0000
G01 F120.00
G01 X60.0000 Y-0.0000
G01 X60.0000 Y-0.0000
G01 X60.0000 Y0.0000
G01 X60.0000 Y0.0000
G00 X60.0000 Y0.0000
G01 F60.00
G01 Z-4.5000
G01 F120.00
G01 X60.0000 Y-0.0000
G01 X60.0000 Y-0.0000
G01 X60.0000 Y0.0000
G01 X60.0000 Y0.0000
G00 X60.0000 Y0.0000
G01 F60.00
G01 Z-6.0000
G01 F120.00
G01 X60.0000 Y-0.0000
G01 X60.0000 Y-0.0000
G01 X60.0000 Y0.0000
G01 X60.0000 Y0.0000
G00 Z2.0000
G00 X60.0000 Y70.1000
G01 F60.00
G01 Z-1.5000
G01 F120.00
G01 X60.0000 Y70.1000
G01 X60.0000 Y70.1000
G01 X60.0000 Y70.1000
G01 X60.0000 Y70.1000
G00 X60.0000 Y70.1000
G01 F60.00
G01 Z-3.0000
G01 F120.00
G01 X60.0000 Y70.1000
G01 X60.0000 Y70.1000
G01 X60.0000 Y70.1000
G01 X60.0000 Y70.1000
G00 X60.0000 Y70.1000
G01 F60.00
G01 Z-4.5000
G01 F120.00
G01 X60.0000 Y70.1000
G01 X60.0000 Y70.1000
G01 X60.0000 Y70.1000
G01 X60.0000 Y70.1000
G00 X60.0000 Y70.1000
G01 F60.00
G01 Z-6.0000
G01 F120.00
G01 X60.0000 Y70.1000
G01 X60.0000 Y70.1000
G01 X60.0000 Y70.1000
G01 X60.0000 Y70.1000
G00 Z2.0000
G00 X60.0000 Y80.0000
G01 F60.00
G01 Z-1.5000
G01 F120.00
G01 X60.0000 Y80.0000
G01 X60.0000 Y80.0000
G01 X60.0000 Y80.0000
G01 X60.0000 Y80.0000
G00 X60.0000 Y80.0000
G01 F60.00
G01 Z-3.0000
G01 F120.00
G01 X60.0000 Y80.0000
G01 X60.0000 Y80.0000
G01 X60.0000 Y80.0000
G01 X60.0000 Y80.0000
G00 X60.0000 Y80.0000
G01 F60.00
G01 Z-4.5000
G01 F120.00
G01 X60.0000 Y80.0000
G01 X60.0000 Y80.0000
G01 X60.0000 Y80.0000
G01 X60.0000 Y80.0000
G00 X60.0000 Y80.0000
G01 F60.00
G01 Z-6.0000
G01 F120.00
G01 X60.0000 Y80.0000
G01 X60.0000 Y80.0000
G01 X60.0000 Y80.0000
G01 X60.0000 Y80.0000
G00 Z2.0000
G00 X-10.0000 Y80.0000
G01 F60.00
G01 Z-1.5000
G01 F120.00
G01 X-10.0000 Y80.0000
G01 X-10.0000 Y80.0000
G01 X-10.0000 Y80.0000
G01 X-10.0000 Y80.0000
G00 X-10.0000 Y80.0000
G01 F60.00
G01 Z-3.0000
G01 F120.00
G01 X-10.0000 Y80.0000
G01 X-10.0000 Y80.0000
G01 X-10.0000 Y80.0000
G01 X-10.0000 Y80.0000
G00 X-10.0000 Y80.0000
G01 F60.00
G01 Z-4.5000
G01 F120.00
G01 X-10.0000 Y80.0000
G01 X-10.0000 Y80.0000
G01 X-10.0000 Y80.0000
G01 X-10.0000 Y80.0000
G00 X-10.0000 Y80.0000
G01 F60.00
G01 Z-6.0000
G01 F120.00
G01 X-10.0000 Y80.0000
G01 X-10.0000 Y80.0000
G01 X-10.0000 Y80.0000
G01 X-10.0000 Y80.0000
G00 Z2.0000
G00 X-10.0000 Y80.1000
G01 F60.00
G01 Z-1.5000
G01 F120.00
G01 X-10.0000 Y80.1000
G01 X-10.0000 Y80.1000
G01 X-10.0000 Y80.1000
G01 X-10.0000 Y80.1000
G00 X-10.0000 Y80.1000
G01 F60.00
G01 Z-3.0000
G01 F120.00
G01 X-10.0000 Y80.1000
G01 X-10.0000 Y80.1000
G01 X-10.0000 Y80.1000
G01 X-10.0000 Y80.1000
G00 X-10.0000 Y80.1000
G01 F60.00
G01 Z-4.5000
G01 F120.00
G01 X-10.0000 Y80.1000
G01 X-10.0000 Y80.1000
G01 X-10.0000 Y80.1000
G01 X-10.0000 Y80.1000
G00 X-10.0000 Y80.1000
G01 F60.00
G01 Z-6.0000
G01 F120.00
G01 X-10.0000 Y80.1000
G01 X-10.0000 Y80.1000
G01 X-10.0000 Y80.1000
G01 X-10.0000 Y80.1000
G00 Z2.0000
M05
G00 Z2.0000
G00 Z15.00

